v/0.4.11/design-resources/icons/wf_doctype-icons/file-trash.svg

<?xml version="1.0" encoding="utf-8"?>
<!-- Generated by IcoMoon.io -->
<!DOCTYPE svg PUBLIC "-//W3C//DTD SVG 1.1//EN" "http://www.w3.org/Graphics/SVG/1.1/DTD/svg11.dtd">
<svg version="1.1" xmlns="http://www.w3.org/2000/svg" xmlns:xlink="http://www.w3.org/1999/xlink" width="512" height="512" viewBox="0 0 512 512">
<g>
</g>
	<path d="M288 336v160h160v-160h-160zM384 448v-80h16v96h-16v-16zM336 368h16v96h-16v-96zM64 448v-384h284.812c19.406 0 35.188 15.797 35.188 35.203v108.859c12.342 0.547 23.533 5.562 32 13.469v-122.328c0-37.109-30.093-67.203-67.188-67.203h-316.812v448h224v-32h-192zM128 160h192v32h-192v-32zM128 256h112v-16h67.438c2.345-5.969 5.813-11.391 10.096-16h-189.534v32zM128 288h112v32h-112v-32zM272 320h192v-48h-64v-13.719c0-10.094-8.189-18.281-18.281-18.281h-27.438c-10.092 0-18.281 8.188-18.281 18.281v13.719h-64v48z" fill="#595959" />
</svg>

<svg xmlns="http://www.w3.org/2000/svg" width="512" height="512" viewBox="0 0 512 512"><path stroke="#449FDB" d="M0 0"/><path d="M288 336v160h160V336H288zm96 112v-80h16v96h-16v-16zm-48-80h16v96h-16v-96zM64 448V64h284.812C368.218 64 384 79.797 384 99.203v108.86c12.342.546 23.533 5.56 32 13.468V99.205C416 62.094 385.907 32 348.812 32H32v448h224v-32H64zm64-288h192v32H128v-32zm0 96h112v-16h67.438c2.345-5.97 5.813-11.39 10.096-16H128v32zm0 32h112v32H128v-32zm144 32h192v-48h-64v-13.72c0-10.093-8.19-18.28-18.28-18.28h-27.44c-10.09 0-18.28 8.188-18.28 18.28V272h-64v48z" fill="#595959"/></svg>
